X: 13249
T: Fishing In The Rain
R: jig
M: 6/8
K: Adorian
|:~e3 edc|AGE D2D|EDE ~G3|AGA cdg|
~e3 edc|AGE D2D|EDE ~G3|1 AGE A2d:|2 AGE A2G||
|:~A3 cde|eag e3|~a3 ~g3|edc AGE|
~A3 cde|eag e3|edc AGE|1 DEG A2G:|2 DEG A2d||

